style-guide/assets/xd-icons-book.svg

<svg viewBox="0 0 24 24" xmlns="http://www.w3.org/2000/svg" xmlns:xlink="http://www.w3.org/1999/xlink">
  <path d="M13 8.5v8.308A6.458 6.458 0 0 1 17.5 15c1.747 0 3.333.677 4.5 1.794V8.5C22 6.019 19.981 4 17.5 4a4.474 4.474 0 0 0-3.183 1.317A4.474 4.474 0 0 0 13 8.5zM6.5 4a4.474 4.474 0 0 0-3.183 1.317A4.474 4.474 0 0 0 2 8.5v8.308A6.458 6.458 0 0 1 6.5 15c1.747 0 3.333.677 4.5 1.794V8.5C11 6.019 8.981 4 6.5 4zM23 21h.01H23zm0 1c-.518 0-.98-.396-1.026-.912A4.467 4.467 0 0 0 17.5 17a4.474 4.474 0 0 0-3.183 1.317 4.438 4.438 0 0 0-1.29 2.766c-.044.523-.5.935-1.012.917-.541-.016-.995-.391-1.041-.912A4.467 4.467 0 0 0 6.5 17a4.474 4.474 0 0 0-3.183 1.317 4.438 4.438 0 0 0-1.29 2.766A1 1 0 0 1 1.03 22C.478 22 0 21.552 0 21V8.5c0-1.737.676-3.37 1.902-4.597A6.463 6.463 0 0 1 6.5 2a6.501 6.501 0 0 1 5.497 3.034c.256-.405.559-.784.905-1.131A6.463 6.463 0 0 1 17.5 2C21.084 2 24 4.916 24 8.5V21a1 1 0 0 1-1 1z"/>
</svg>

<?xml version="1.0" encoding="UTF-8"?>
<svg width="24px" height="24px" viewBox="0 0 24 24" version="1.1" xmlns="http://www.w3.org/2000/svg" xmlns:xlink="http://www.w3.org/1999/xlink">
    <!-- Generator: Sketch 51.3 (57544) - http://www.bohemiancoding.com/sketch -->
    <title>book</title>
    <desc>Created with Sketch.</desc>
    <defs>
        <path d="M13,8.5 L13,16.808 C14.216,15.641 15.809,15 17.5,15 C19.247,15 20.833,15.677 22,16.794 L22,8.5 C22,6.019 19.981,4 17.5,4 C16.297,4 15.167,4.468 14.317,5.317 C13.468,6.167 13,7.297 13,8.5 Z M6.5,4 C5.297,4 4.167,4.468 3.317,5.317 C2.468,6.167 2,7.297 2,8.5 L2,16.808 C3.216,15.641 4.809,15 6.5,15 C8.247,15 9.833,15.677 11,16.794 L11,8.5 C11,6.019 8.981,4 6.5,4 Z M23,21 L23.01,21 L23,21 Z M23,22 C22.482,22 22.02,21.604 21.974,21.088 C21.766,18.758 19.843,17 17.5,17 C16.297,17 15.167,17.468 14.317,18.317 C13.571,19.063 13.113,20.045 13.027,21.083 C12.983,21.606 12.527,22.018 12.015,22 C11.474,21.984 11.02,21.609 10.974,21.088 C10.766,18.758 8.843,17 6.5,17 C5.297,17 4.167,17.468 3.317,18.317 C2.571,19.063 2.113,20.045 2.027,21.083 C1.984,21.601 1.55,22 1.03,22 C0.478,22 0,21.552 0,21 L0,8.5 C0,6.763 0.676,5.13 1.902,3.903 C3.13,2.676 4.763,2 6.5,2 C8.811,2 10.844,3.212 11.997,5.034 C12.253,4.629 12.556,4.25 12.902,3.903 C14.13,2.676 15.763,2 17.5,2 C21.084,2 24,4.916 24,8.5 L24,21 C24,21.552 23.552,22 23,22 Z" id="path-1"></path>
    </defs>
    <g id="book" stroke="none" stroke-width="1" fill="none" fill-rule="evenodd">
        <mask id="mask-2" fill="white">
            <use xlink:href="#path-1"></use>
        </mask>
        <use id="icons/24px/Book" fill="#000000" xlink:href="#path-1"></use>
    </g>
</svg>
